src/svg/logos/satispay.svg

<svg width="149" height="25" viewBox="0 0 149 25" fill="none" xmlns="http://www.w3.org/2000/svg">
<g clip-path="url(#clip0_2684_37)">
<path d="M4.18305 24.4375H11.0671L21.9432 14.7292C22.4869 14.2437 22.7997 13.5518 22.7997 12.8332C22.7997 12.1147 22.4869 11.4228 21.9432 10.9372L11.0671 1.229H4.18305C3.91742 1.229 3.75606 1.39893 3.694 1.55673C3.63193 1.71453 3.6344 1.94516 3.82804 2.11995L15.4786 12.5201C15.568 12.6002 15.6201 12.7167 15.6201 12.8357C15.6201 12.9546 15.568 13.0712 15.4786 13.1513L3.82804 23.5514C3.63191 23.7262 3.62945 23.9568 3.694 24.1146C3.75606 24.2724 3.91742 24.4423 4.18305 24.4423V24.4375Z" fill="#72788A"/>
<path d="M6.28082 6.09176L0.856466 10.9325C0.312789 11.4181 0 12.1099 0 12.8285C0 13.5471 0.312789 14.239 0.856466 14.7245L6.28082 19.5653L10.3969 15.8898L7.31854 13.1417C7.22917 13.0616 7.17702 12.9451 7.17702 12.8261C7.17702 12.7071 7.22917 12.5906 7.31854 12.5105L10.3969 9.76239L6.28082 6.08691V6.09176Z" fill="#72788A"/>
<path d="M18.6192 1.22314H13.0781L16.5239 4.29899L18.9717 2.11409C19.1678 1.9393 19.1703 1.70867 19.1082 1.55087C19.0462 1.39308 18.8848 1.22314 18.6192 1.22314Z" fill="#72788A"/>
<path d="M16.5239 21.3589L13.0781 24.4347H18.6192C18.8848 24.4347 19.0462 24.2648 19.1082 24.107C19.1703 23.9492 19.1678 23.7186 18.9717 23.5438L16.5239 21.3589Z" fill="#72788A"/>
<path d="M143.344 19.1079C143.486 18.8385 146.626 9.23948 148.299 4.10254H142.835C141.075 11.3273 139.826 15.9738 139.814 16.02L139.74 16.2943L139.654 16.0248C139.639 15.9787 138.141 11.3321 136.401 4.10497H130.938L135.303 16.9328C135.648 17.8528 136.428 18.9526 138.188 18.9526C139.571 18.9526 140.484 18.2753 141.053 17.7654L141.289 17.5542L141.189 17.8528C141.179 17.8795 140.219 20.6495 137.011 20.6495C135.482 20.6495 133.856 20.0353 133.412 19.8532V24.2789C133.655 24.4027 134.938 24.9999 137.011 24.9999C138.004 24.9999 141.023 24.9999 143.342 19.1152L143.344 19.1079Z" fill="#72788A"/>
<path d="M96.2282 16.6554C96.2282 12.7833 92.0948 11.7466 89.076 10.9916C87.1396 10.5085 85.6129 10.125 85.6129 9.18062C85.6129 8.60283 86.0746 7.91337 88.2692 7.91337C91.6877 7.91337 94.6667 10.0983 95.3345 10.6251V5.65807C93.4106 4.40054 91.1491 3.73535 88.7906 3.73535C85.8985 3.73535 81.5938 5.13855 81.5938 9.00582C81.5938 12.6085 85.2976 13.4387 88.2742 14.1063C90.1683 14.5312 91.6653 14.8662 91.6653 15.83C91.6653 16.7185 90.794 17.1676 89.0736 17.1676C85.1909 17.1676 82.5345 14.7885 81.899 14.1573V19.8114C82.6214 20.4183 85.7569 21.5374 88.7036 21.5374C93.351 21.5374 96.2282 19.0029 96.2282 16.6554Z" fill="#72788A"/>
<path d="M121.175 21.5374C123.583 21.5374 125.393 20.4256 126.267 18.4082L126.461 17.9639L126.274 20.8067V21.1733H131.187L131.123 11.7297C131.123 10.7343 130.981 8.81163 130.033 7.10983C128.787 4.87396 126.595 3.74023 123.511 3.74023C119.763 3.74023 117.248 5.37406 116.838 5.66053V10.5984C117.431 10.0109 119.755 7.91582 122.749 7.91582C123.846 7.91582 124.71 8.22171 125.316 8.82863C126.25 9.76085 126.235 11.0548 126.232 11.1106V11.2077L126.133 11.1907C125.505 11.0766 124.177 10.8873 122.312 10.8873C117.486 10.8873 115.289 13.8879 115.289 16.6773C115.289 20.0177 118.343 21.5399 121.178 21.5399L121.175 21.5374ZM120.79 14.0432C122.071 13.0795 124.36 12.9726 125.862 13.3611L125.929 13.3781V13.4436C125.711 17.3886 123.553 17.8158 122.637 17.8158C120.996 17.8158 119.894 16.9856 119.894 15.7475C119.894 15.0653 120.197 14.4899 120.79 14.0432Z" fill="#72788A"/>
<path d="M51.6386 21.5374C54.0467 21.5374 55.8564 20.4256 56.7303 18.4082L56.9239 17.9639L56.7353 20.8067V21.1733H61.6482L61.5837 11.7297C61.5837 10.7343 61.4421 8.81405 60.4938 7.10983C59.2476 4.87396 57.0555 3.74023 53.9722 3.74023C50.2235 3.74023 47.7087 5.37406 47.2991 5.66053V10.5984C47.8924 10.0109 50.2161 7.91582 53.21 7.91582C54.3073 7.91582 55.1712 8.22171 55.777 8.82863C56.7104 9.76085 56.6955 11.0548 56.6931 11.1106V11.2077L56.5937 11.1907C55.9657 11.0766 54.6375 10.8873 52.7731 10.8873C47.947 10.8873 45.75 13.8879 45.75 16.6773C45.75 20.0177 48.8035 21.5399 51.6386 21.5399V21.5374ZM51.2538 14.0432C52.5348 13.0795 54.8237 12.9726 56.3256 13.3611L56.3927 13.3781V13.4436C56.1742 17.3886 54.0169 17.8158 53.1008 17.8158C51.4599 17.8158 50.3576 16.9856 50.3576 15.7475C50.3576 15.0653 50.6605 14.4899 51.2538 14.0432Z" fill="#72788A"/>
<path d="M68.4578 21.538C70.1906 21.538 71.6851 21.0233 72.3629 20.1931V15.9301C72.0923 16.2845 71.484 16.9303 70.6822 16.9303C69.6122 16.9303 69.0933 16.2044 69.0933 14.7138V7.24634H72.1444V3.73836H69.0933V1.25H65.6203C65.6029 2.05841 65.2975 4.25545 62.5469 4.29915V7.24634H64.0513V16.3355C64.0513 19.6905 65.6153 21.5404 68.4578 21.5404V21.538Z" fill="#72788A"/>
<path d="M44.8456 16.6554C44.8456 12.7833 40.7121 11.7466 37.6933 10.9916C35.7569 10.5085 34.2302 10.125 34.2302 9.18062C34.2302 8.60283 34.6919 7.91337 36.8865 7.91337C40.305 7.91337 43.284 10.0983 43.9519 10.6251V5.65807C42.0279 4.40054 39.7663 3.73535 37.4078 3.73535C34.5157 3.73535 30.2109 5.13855 30.2109 9.00582C30.2109 12.6085 33.9149 13.4387 36.8915 14.1063C38.7857 14.5312 40.2826 14.8662 40.2826 15.83C40.2826 16.7185 39.4113 17.1676 37.6908 17.1676C33.8081 17.1676 31.1518 14.7885 30.5163 14.1573V19.8114C31.2387 20.4183 34.3742 21.5374 37.321 21.5374C41.9683 21.5374 44.8456 19.0029 44.8456 16.6554Z" fill="#72788A"/>
<path d="M77.219 0C75.5234 0 74.1406 1.24296 74.1406 2.76996C74.1406 4.29696 75.5209 5.53507 77.219 5.53507C78.917 5.53507 80.2303 4.32124 80.2303 2.76996C80.2303 1.21868 78.9071 0 77.219 0Z" fill="#72788A"/>
<path d="M77.2206 7.03698C75.8801 7.03698 74.9268 6.71167 74.6016 6.58301V21.1708H79.8174V6.58301C79.4947 6.71167 78.5562 7.03698 77.2206 7.03698Z" fill="#72788A"/>
<path d="M107.878 21.5374C112.312 21.5374 114.705 16.9297 114.705 12.5963C114.705 8.26296 112.567 3.73779 107.878 3.73779C105.46 3.73779 103.873 4.75499 102.878 6.94231L102.679 7.38172L102.947 4.10437H97.7812V24.6327H102.759L102.766 18.617L102.925 18.9083C103.804 20.5324 105.703 21.5399 107.88 21.5399L107.878 21.5374ZM102.277 12.5526C102.277 9.5739 104.39 8.51787 106.197 8.51787C108.235 8.51787 110.293 9.76569 110.293 12.5526C110.293 13.8539 109.839 14.9196 108.978 15.6309C108.25 16.233 107.265 16.5632 106.197 16.5632C104.387 16.5632 102.277 15.512 102.277 12.5526Z" fill="#72788A"/>
</g>
<defs>
<clipPath id="clip0_2684_37">
<rect width="149" height="25" fill="white"/>
</clipPath>
</defs>
</svg>

<svg xmlns="http://www.w3.org/2000/svg" width="149" height="25" fill="none" viewBox="0 0 149 25">
  <g clip-path="url(#a)">
    <path d="M4.183 24.438h6.884l10.876-9.709a2.55 2.55 0 0 0 .857-1.896 2.55 2.55 0 0 0-.857-1.896L11.067 1.23H4.183a.51.51 0 0 0-.489.328.5.5 0 0 0 .134.563l11.65 10.4c.09.08.142.197.142.316a.43.43 0 0 1-.141.315l-11.651 10.4a.49.49 0 0 0-.134.564.51.51 0 0 0 .489.327z"/>
    <path d="m6.28 6.092-5.424 4.84A2.55 2.55 0 0 0 0 12.828c0 .72.313 1.411.856 1.897l5.425 4.84 4.116-3.675-3.078-2.748a.43.43 0 0 1-.142-.316c0-.119.052-.235.142-.316l3.078-2.748L6.28 6.087zM18.62 1.223h-5.542L16.524 4.3l2.448-2.185a.5.5 0 0 0 .136-.563.51.51 0 0 0-.489-.328M16.524 21.359l-3.446 3.076h5.541c.266 0 .427-.17.49-.328a.5.5 0 0 0-.137-.563zM143.344 19.108c.142-.27 3.282-9.869 4.955-15.005h-5.464c-1.76 7.224-3.009 11.87-3.021 11.917l-.074.274-.086-.27c-.015-.045-1.513-4.692-3.253-11.919h-5.463l4.365 12.828c.345.92 1.125 2.02 2.885 2.02 1.383 0 2.296-.678 2.865-1.188l.236-.21-.1.298c-.01.026-.97 2.796-4.178 2.796-1.529 0-3.155-.614-3.599-.796v4.426c.243.124 1.526.72 3.599.72.993 0 4.012 0 6.331-5.884zM96.228 16.655c0-3.872-4.133-4.908-7.152-5.663-1.936-.484-3.463-.867-3.463-1.811 0-.578.462-1.268 2.656-1.268 3.419 0 6.398 2.185 7.066 2.712V5.658c-1.924-1.257-4.186-1.923-6.544-1.923-2.892 0-7.197 1.404-7.197 5.27 0 3.603 3.704 4.434 6.68 5.101 1.894.425 3.391.76 3.391 1.724 0 .888-.871 1.338-2.591 1.338-3.883 0-6.54-2.38-7.175-3.01v5.653c.722.607 3.858 1.726 6.805 1.726 4.647 0 7.524-2.534 7.524-4.882M121.175 21.537c2.408 0 4.218-1.111 5.092-3.129l.194-.444-.187 2.843v.366h4.913l-.064-9.443c0-.996-.142-2.918-1.09-4.62-1.246-2.236-3.438-3.37-6.522-3.37-3.748 0-6.263 1.634-6.673 1.92v4.938c.593-.587 2.917-2.682 5.911-2.682 1.097 0 1.961.306 2.567.913.934.932.919 2.226.916 2.282v.097l-.099-.017c-.628-.114-1.956-.304-3.821-.304-4.826 0-7.023 3-7.023 5.79 0 3.34 3.054 4.863 5.889 4.863zm-.385-7.494c1.281-.963 3.57-1.07 5.072-.682l.067.017v.066c-.218 3.945-2.376 4.372-3.292 4.372-1.641 0-2.743-.83-2.743-2.068 0-.683.303-1.258.896-1.705M51.639 21.537c2.408 0 4.217-1.111 5.091-3.129l.194-.444-.189 2.843v.366h4.913l-.064-9.443c0-.996-.142-2.916-1.09-4.62-1.246-2.236-3.438-3.37-6.522-3.37-3.748 0-6.263 1.634-6.673 1.92v4.938c.593-.587 2.917-2.682 5.911-2.682 1.097 0 1.961.306 2.567.913.933.932.919 2.226.916 2.282v.097l-.1-.017c-.627-.114-1.956-.304-3.82-.304-4.826 0-7.023 3-7.023 5.79 0 3.34 3.053 4.863 5.889 4.863zm-.385-7.494c1.28-.963 3.57-1.07 5.072-.682l.067.017v.066c-.219 3.945-2.376 4.372-3.292 4.372-1.641 0-2.743-.83-2.743-2.068 0-.683.303-1.258.896-1.705M68.458 21.538c1.733 0 3.227-.515 3.905-1.345V15.93c-.27.355-.879 1-1.68 1-1.07 0-1.59-.726-1.59-2.216V7.246h3.051V3.738h-3.05V1.25H65.62c-.017.808-.323 3.005-3.073 3.05v2.946h1.504v9.09c0 3.355 1.564 5.204 4.407 5.204zM44.846 16.655c0-3.872-4.134-4.908-7.153-5.663-1.936-.484-3.463-.867-3.463-1.811 0-.578.462-1.268 2.657-1.268 3.418 0 6.397 2.185 7.065 2.712V5.658c-1.924-1.257-4.186-1.923-6.544-1.923-2.892 0-7.197 1.404-7.197 5.27 0 3.603 3.704 4.434 6.68 5.101 1.895.425 3.392.76 3.392 1.724 0 .888-.872 1.338-2.592 1.338-3.883 0-6.54-2.38-7.175-3.01v5.653c.723.607 3.858 1.726 6.805 1.726 4.647 0 7.525-2.534 7.525-4.882M77.219 0c-1.696 0-3.078 1.243-3.078 2.77s1.38 2.765 3.078 2.765S80.23 4.321 80.23 2.77 78.907 0 77.22 0M77.22 7.037c-1.34 0-2.293-.325-2.618-.454v14.588h5.215V6.583c-.322.129-1.26.454-2.596.454M107.878 21.537c4.434 0 6.827-4.607 6.827-8.94 0-4.334-2.138-8.86-6.827-8.86-2.418 0-4.005 1.018-5 3.205l-.199.44.268-3.278h-5.166v20.529h4.978l.007-6.016.159.291c.879 1.624 2.778 2.632 4.955 2.632zm-5.601-8.984c0-2.98 2.113-4.035 3.92-4.035 2.038 0 4.096 1.248 4.096 4.035 0 1.3-.454 2.367-1.315 3.078-.728.602-1.713.932-2.781.932-1.81 0-3.92-1.051-3.92-4.01"/>
  </g>
  <defs>
    <clipPath id="a">
      <path fill="#fff" d="M0 0h149v25H0z"/>
    </clipPath>
  </defs>
</svg>
